src/assets/img/icon-update.svg

<?xml version="1.0" encoding="utf-8"?>
<!-- Generator: Adobe Illustrator 21.0.2, SVG Export Plug-In . SVG Version: 6.00 Build 0)  -->
<svg version="1.1" id="Layer_1" xmlns="http://www.w3.org/2000/svg" xmlns:xlink="http://www.w3.org/1999/xlink" x="0px" y="0px"
	 viewBox="0 0 46.1 46.1" style="enable-background:new 0 0 46.1 46.1;" xml:space="preserve">
<style type="text/css">
	.st0{fill:#647CE8;}
	.st1{fill:none;stroke:#FFFEFE;}
</style>
<path id="Oval-87" class="st0" d="M23.1,46.1c12.7,0,23-10.3,23-23s-10.3-23-23-23s-23,10.3-23,23S10.4,46.1,23.1,46.1z"/>
<path id="Shape" class="st1" d="M33.6,17.6h-14c-3.3,0-6,2.7-6,6v1"/>
<path id="Shape_1_" class="st1" d="M13.6,29.6h14c3.3,0,6-2.7,6-6v-1"/>
<polyline id="Shape_2_" class="st1" points="29.6,21.6 33.6,17.6 29.6,13.6 "/>
<polyline id="Shape_3_" class="st1" points="17.6,25.6 13.6,29.6 17.6,33.6 "/>
</svg>

<?xml version="1.0" encoding="UTF-8"?>
<svg width="47px" height="47px" viewBox="0 0 47 47" version="1.1" xmlns="http://www.w3.org/2000/svg" xmlns:xlink="http://www.w3.org/1999/xlink">
    <!-- Generator: Sketch 54.1 (76490) - https://sketchapp.com -->
    <title>icon-update</title>
    <desc>Created with Sketch.</desc>
    <g id="copay-assets" stroke="none" stroke-width="1" fill="none" fill-rule="evenodd">
        <g id="src/assets/img" transform="translate(-828.000000, -451.000000)">
            <g id="icon-update" transform="translate(828.000000, 451.000000)">
                <path d="M23.1,46.1 C35.8,46.1 46.1,35.8 46.1,23.1 C46.1,10.4 35.8,0.1 23.1,0.1 C10.4,0.1 0.1,10.4 0.1,23.1 C0.1,35.8 10.4,46.1 23.1,46.1 Z" id="Oval-87" fill="#FFB900" fill-rule="nonzero"></path>
                <path d="M33.6,17.6 L19.6,17.6 C16.3,17.6 13.6,20.3 13.6,23.6 L13.6,24.6" id="Shape" stroke="#FFFEFE"></path>
                <path d="M13.6,29.6 L27.6,29.6 C30.9,29.6 33.6,26.9 33.6,23.6 L33.6,22.6" id="Shape_1_" stroke="#FFFEFE"></path>
                <polyline id="Shape_2_" stroke="#FFFEFE" points="29.6 21.6 33.6 17.6 29.6 13.6"></polyline>
                <polyline id="Shape_3_" stroke="#FFFEFE" points="17.6 25.6 13.6 29.6 17.6 33.6"></polyline>
            </g>
        </g>
    </g>
</svg>
